apps/pie-docs/src/assets/img/foundations/typography/pt-mono.svg

<svg width="91" height="57" viewBox="0 0 91 57" fill="none" xmlns="http://www.w3.org/2000/svg">
<path d="M33.2 40.48H11.68L6.56 56H0L18.72 0H26.56L45.44 56H38.48L33.2 40.48ZM13.76 34.72H31.36L23.12 8.4H22.16L13.76 34.72Z" fill="#242E30"/>
<path d="M55.3288 19.12C57.6221 17.7867 60.2088 16.8267 63.0888 16.24C65.9688 15.6533 68.7954 15.36 71.5688 15.36C74.2888 15.36 76.5021 15.7867 78.2088 16.64C79.9688 17.4933 81.3288 18.6133 82.2887 20C83.3021 21.3333 83.9688 22.88 84.2888 24.64C84.6621 26.3467 84.8488 28.08 84.8488 29.84C84.8488 31.8667 84.7954 34.0267 84.6888 36.32C84.5821 38.6133 84.5021 40.9067 84.4488 43.2C84.4488 45.8667 84.6087 48.4 84.9287 50.8H90.2887V56H79.6488L78.9288 50H78.5288C78.2088 50.48 77.7288 51.0933 77.0888 51.84C76.4488 52.5867 75.5954 53.3333 74.5288 54.08C73.5154 54.7733 72.2621 55.3867 70.7688 55.92C69.2754 56.4533 67.5154 56.72 65.4888 56.72C61.5421 56.72 58.4221 55.7067 56.1288 53.68C53.8354 51.6533 52.6888 48.88 52.6888 45.36C52.6888 42.64 53.2754 40.3733 54.4488 38.56C55.6754 36.7467 57.4088 35.36 59.6488 34.4C61.8888 33.44 64.5821 32.88 67.7288 32.72C70.9287 32.56 74.5021 32.7733 78.4488 33.36C78.7154 30.9067 78.7421 28.88 78.5288 27.28C78.3688 25.6267 77.9421 24.32 77.2488 23.36C76.6088 22.4 75.6754 21.7333 74.4488 21.36C73.2754 20.9333 71.8088 20.72 70.0488 20.72C67.6488 20.72 65.3554 21.0667 63.1688 21.76C60.9821 22.4 59.0354 23.0667 57.3288 23.76L55.3288 19.12ZM67.0888 51.36C68.5821 51.36 69.9688 51.12 71.2487 50.64C72.5287 50.16 73.6488 49.5467 74.6087 48.8C75.5687 48.0533 76.3688 47.2533 77.0088 46.4C77.6488 45.4933 78.1288 44.64 78.4488 43.84V38.24C75.6754 37.76 73.1154 37.52 70.7688 37.52C68.4221 37.52 66.3954 37.7867 64.6888 38.32C62.9821 38.8 61.6488 39.5733 60.6888 40.64C59.7288 41.7067 59.2488 43.0933 59.2488 44.8C59.2488 46.56 59.8354 48.1067 61.0088 49.44C62.2354 50.72 64.2621 51.36 67.0888 51.36Z" fill="#242E30"/>
</svg>

<svg xmlns="http://www.w3.org/2000/svg" width="91" height="57" fill="#242e30" xmlns:v="https://vecta.io/nano"><path d="M33.2 40.48H11.68L6.56 56H0L18.72 0h7.84l18.88 56h-6.96L33.2 40.48zm-19.44-5.76h17.6L23.12 8.4h-.96l-8.4 26.32zm41.569-15.6c2.293-1.333 4.88-2.293 7.76-2.88s5.707-.88 8.48-.88c2.72 0 4.933.427 6.64 1.28 1.76.853 3.12 1.973 4.08 3.36 1.013 1.333 1.68 2.88 2 4.64.373 1.707.56 3.44.56 5.2l-.16 6.48-.24 6.88c0 2.667.16 5.2.48 7.6h5.36V56h-10.64l-.72-6h-.4c-.32.48-.8 1.093-1.44 1.84s-1.493 1.493-2.56 2.24c-1.013.693-2.267 1.307-3.76 1.84s-3.253.8-5.28.8c-3.947 0-7.067-1.013-9.36-3.04s-3.44-4.8-3.44-8.32c0-2.72.587-4.987 1.76-6.8 1.227-1.813 2.96-3.2 5.2-4.16s4.933-1.52 8.08-1.68c3.2-.16 6.773.053 10.72.64.267-2.453.293-4.48.08-6.08-.16-1.653-.587-2.96-1.28-3.92-.64-.96-1.573-1.627-2.8-2-1.173-.427-2.64-.64-4.4-.64-2.4 0-4.693.347-6.88 1.04-2.187.64-4.133 1.307-5.84 2l-2-4.64zm11.76 32.24c1.493 0 2.88-.24 4.16-.72s2.4-1.093 3.36-1.84 1.76-1.547 2.4-2.4c.64-.907 1.12-1.76 1.44-2.56v-5.6c-2.773-.48-5.333-.72-7.68-.72s-4.373.267-6.08.8c-1.707.48-3.04 1.253-4 2.32s-1.44 2.453-1.44 4.16c0 1.76.587 3.307 1.76 4.64 1.227 1.28 3.253 1.92 6.08 1.92z"/></svg>
